X: 35705
T: Saint Anne's
R: reel
M: 4/4
K: Dmajor
|:fedf edcB|A2FA DAFA|B2GB EBGB|A2FA DAFA|
fedf edcB|A2FA DAFA|Beed cABc|eddc d3e:|
|:~f3g fedc|Bggf g3f|edcB ABcd|eaag a3g|
~f3g fedc|Bggf g3f|edcB ABcd|1 eddc d3e:|2 eddc d4||

